X:370
T:Polska efter Munkberg
T:(SvL Skåne nr. 738)
R:polska
Z:Jonas Brunskog, 8/8 2008
O:Barsebäck, Skåne
S:efter Per Munkberg
B:Svenska Låtar Skåne
N:Sv. L. Sk. 738
M:3/4
L:1/16
K:G
|:G2DG B2AB c2B2|GBdf gBdg b2a2|a(ba)g f(gf)e d2(dc)|Bdgf edcB AGFA|
G2DG B2AB c2B2|GBdf gBdg b2a2|a(ba)g f(gf)e d2(dc)|Bdga a4 g4:|
|:gdBG FAdf agfg|bgdB GBdg c'bab|abag fgfe d2(dc) |Bdgf edcB AGFA|
G2DG B2AB c2B2|c2Bc e2de g2f2|abag fgfe d2(dc)|(Bd)ga a2g2 g4:|
(:musicend:)

(:music:)
